apps/presentationeditor/main/resources/img/toolbar/2.5x/big/btn-transition-clock.svg

<svg width="28" height="28" viewBox="0 0 28 28" fill="none" xmlns="http://www.w3.org/2000/svg">
<path fill-rule="evenodd" clip-rule="evenodd" d="M24 5H4V22H24V5ZM4 4C3.44772 4 3 4.44771 3 5V22C3 22.5523 3.44772 23 4 23H24C24.5523 23 25 22.5523 25 22V5C25 4.44772 24.5523 4 24 4H4Z" fill="#4E80F5"/>
<path opacity="0.4" d="M24 22L4 22L4 5L14 5L14 13L24 13L24 22Z" fill="#4E80F5"/>
<path d="M24 7L14 13H24V7Z" fill="url(#paint0_linear_8305_62076)"/>
<defs>
<linearGradient id="paint0_linear_8305_62076" x1="21" y1="13" x2="21" y2="7" gradientUnits="userSpaceOnUse">
<stop stop-color="#4E80F5" stop-opacity="0.4"/>
<stop offset="1" stop-color="#4E80F5" stop-opacity="0"/>
</linearGradient>
</defs>
</svg>

<svg width="28" height="28" fill="none" xmlns="http://www.w3.org/2000/svg"><path fill-rule="evenodd" clip-rule="evenodd" d="M24 5H4v17h20V5zM4 4a1 1 0 0 0-1 1v17a1 1 0 0 0 1 1h20a1 1 0 0 0 1-1V5a1 1 0 0 0-1-1H4z" fill="#000"/><path opacity=".4" d="M24 22H4V5h10v8h10v9z" fill="#000"/><path d="m24 7-10 6h10V7z" fill="url(#a)"/><defs><linearGradient id="a" x1="21" y1="13" x2="21" y2="7" gradientUnits="userSpaceOnUse"><stop stop-opacity=".4"/><stop offset="1" stop-opacity="0"/></linearGradient></defs></svg>
